material/.icons/material/cloud-check-outline.svg

<svg xmlns="http://www.w3.org/2000/svg" viewBox="0 0 24 24"><path d="M19 18H6c-2.21 0-4-1.79-4-4s1.79-4 4-4h.71C7.37 7.69 9.5 6 12 6c3.04 0 5.5 2.46 5.5 5.5v.5H19c1.66 0 3 1.34 3 3s-1.34 3-3 3m.35-7.97A7.49 7.49 0 0012 4C9.11 4 6.6 5.64 5.35 8.03A6.004 6.004 0 006 20h13c2.76 0 5-2.24 5-5 0-2.64-2.05-4.78-4.65-4.97M10 17l-3.5-3.5 1.41-1.42L10 14.17l4.59-4.58L16 11"/></svg>

<?xml version="1.0" encoding="UTF-8"?><!DOCTYPE svg PUBLIC "-//W3C//DTD SVG 1.1//EN" "http://www.w3.org/Graphics/SVG/1.1/DTD/svg11.dtd"><svg xmlns="http://www.w3.org/2000/svg" xmlns:xlink="http://www.w3.org/1999/xlink" version="1.1" id="mdi-cloud-check-outline" width="24" height="24" viewBox="0 0 24 24"><path d="M19 18H6C3.79 18 2 16.21 2 14S3.79 10 6 10H6.71C7.37 7.69 9.5 6 12 6C15.04 6 17.5 8.46 17.5 11.5V12H19C20.66 12 22 13.34 22 15S20.66 18 19 18M19.35 10.03C18.67 6.59 15.64 4 12 4C9.11 4 6.6 5.64 5.35 8.03C2.34 8.36 0 10.9 0 14C0 17.31 2.69 20 6 20H19C21.76 20 24 17.76 24 15C24 12.36 21.95 10.22 19.35 10.03M10 17L6.5 13.5L7.91 12.08L10 14.17L14.59 9.59L16 11" /></svg>
